X:1
T:Title
%%score { ( 1 2 ) | ( 3 4 ) }
L:1/8
Q:1/4=100
M:4/4
K:F
V:1 treble nm="Grand Piano"
V:2 treble 
V:3 bass 
V:4 bass 
V:1
 F2 A>G F2 z z/ B/ | c2 d>c c A3 | F2 F>G A2 F2 | d>c c>A [CEG]4 | F2 A>G F2 z z/ A/ | %5
w: C.~W.~Riley * * * *|||||
 c2 d>c c A3 | F2 F->[DFA] [CFA] [A,F]3 | [B,EG]2 [A,F]>[CE] [F,A,CF]4 | %8
w: |||
 [CEB]2 [CGB]2 [CEB]2 [CEB]2 | F->[F_A] =AB c2 A2 | [^Fd]2 [Fc]2 [GB]2 [GB]>G | A2 [F=B]2 [Ec]4 | %12
w: ||||
 F2 A>G F2 z z/ A/ | c2 d>c c A3 | F2 F->[DFA] [CFA] [A,F]3 | %15
w: |||
[M:8/4] [B,EG]2 [A,F]>[CE] [F,A,CF]4 z8 |] %16
w: |
V:2
 z4 z2 F2 | x8 | x8 | x8 | z4 z2 F2 | x8 | z2 C2 z4 | x8 | x8 | [CA]2 z2 z4 | x8 | x8 | z4 z2 F2 | %13
 x8 | z2 C2 z4 |[M:8/4] x16 |] %16
V:3
 z2 C2 z2 A,2 | [F,A,F]2 [F,F]->[F,A,F] [F,A,F] [F,CF]3 | [F,A,C]2 C->[G,CE] [F,CF]2 [F,A,C]2 | %3
 B,2 [F,F]2 z4 | z2 C2 z2 A,2 | [F,A,F]2 [F,F]->[F,A,F] [F,A,F] [F,CF]3 | [F,A,C]2 A,,>B,, C, C,3 | %7
 C,2 z z/ G,/ F,,4 | C,2 E,2 G,2 C,2 | z z/ =B,/[K:treble] C-[G,CE] [A,CF]2[K:bass] [F,CF]2 | %10
 [D,D]2 [D,D]2 [G,D]2 [E,C]2 | [F,CF]2 [D,G,]2 [C,G,]4 | z2 C2 z2 A,2 | %13
 [F,A,F]2 [F,F]->[F,A,F] [F,A,F] [F,CF]3 | [F,A,C]2 A,,>B,, C, C,3 |[M:8/4] .C,3 z/ G,/ F,,4 z8 |] %16
V:4
 [F,A,C]2 [F,F]->[F,B,F] [F,A,]2 F,->[F,C] | z2 B,2 z4 | z2 A,2 z4 | [F,F]->[F,A,F] A,>C C,4 | %4
 [F,A,C]2 [F,F]->[F,B,F] [F,A,]2 F,->[F,C] | z2 B,2 z4 | x8 | z2 C,2 z4 | x8 | %9
 F,2[K:treble] .[F,F]2 z4[K:bass] | x8 | x8 | [F,A,C]2 [F,F]->[F,B,F] [F,A,]2 F,->[F,C] | %13
 z2 B,2 z4 | x8 |[M:8/4] z2 C,2 z4 z8 |] %16

